icons/heavy-showers-line.svg

<svg viewBox="0 0 24 24" fill="currentColor" xmlns="http://www.w3.org/2000/svg">
    <path d="M5 16.9297C2.60879 15.5465 1 12.9611 1 10C1 5.58172 4.58172 2 9 2C12.3949 2 15.2959 4.11466 16.4576 7.09864C16.7951 7.0339 17.1436 7 17.5 7C20.5376 7 23 9.46243 23 12.5C23 15.0176 21.3085 17.14 19 17.793V15.6632C20.1825 15.1015 21 13.8962 21 12.5C21 10.567 19.433 9 17.5 9C16.5205 9 15.6351 9.40232 14.9998 10.0507C14.9999 10.0338 15 10.0169 15 10C15 6.68629 12.3137 4 9 4C5.68629 4 3 6.68629 3 10C3 11.777 3.7725 13.3736 5 14.4722V16.9297ZM7 14H9V20H7V14ZM15 14H17V20H15V14ZM11 17H13V23H11V17Z"/>
</svg>

<svg xmlns="http://www.w3.org/2000/svg" viewBox="0 0 24 24">
    <g>
        <path fill="none" d="M0 0h24v24H0z"/>
        <path d="M5 16.93a8 8 0 1 1 11.458-9.831A5.5 5.5 0 0 1 19 17.793v-2.13a3.5 3.5 0 1 0-4-5.612V10a6 6 0 1 0-10 4.472v2.458zM7 14h2v6H7v-6zm8 0h2v6h-2v-6zm-4 3h2v6h-2v-6z"/>
    </g>
</svg>
